StripeUICore/StripeUICore/Resources/StripeUICore.xcassets/icon_clear.imageset/icon_clear.svg

<svg fill="none" height="16" viewBox="0 0 16 16" width="16" xmlns="http://www.w3.org/2000/svg"><path clip-rule="evenodd" d="m8 16c-4.41828 0-8-3.5817-8-8 0-4.41828 3.58172-8 8-8 4.4183 0 8 3.58172 8 8 0 4.4183-3.5817 8-8 8zm1.41421-8 2.29289 2.2929c.3905.3905.3905 1.0237 0 1.4142s-1.0237.3905-1.4142 0l-2.2929-2.29289-2.29289 2.29289c-.39053.3905-1.02369.3905-1.41422 0-.39052-.3905-.39052-1.0237 0-1.4142l2.2929-2.2929-2.2929-2.29289c-.39052-.39053-.39052-1.02369 0-1.41422.39053-.39052 1.02369-.39052 1.41422 0l2.29289 2.2929 2.2929-2.2929c.3905-.39052 1.0237-.39052 1.4142 0 .3905.39053.3905 1.02369 0 1.41422z" fill="#6a7383" fill-rule="evenodd"/></svg>

<svg width="16" height="16" viewBox="0 0 16 16" fill="none" xmlns="http://www.w3.org/2000/svg">
<path fill-rule="evenodd" clip-rule="evenodd" d="M8 16C3.58172 16 0 12.4183 0 8C0 3.58172 3.58172 0 8 0C12.4183 0 16 3.58172 16 8C16 12.4183 12.4183 16 8 16ZM9.41421 8L11.7071 10.2929C12.0976 10.6834 12.0976 11.3166 11.7071 11.7071C11.3166 12.0976 10.6834 12.0976 10.2929 11.7071L8 9.41421L5.70711 11.7071C5.31658 12.0976 4.68342 12.0976 4.29289 11.7071C3.90237 11.3166 3.90237 10.6834 4.29289 10.2929L6.58579 8L4.29289 5.70711C3.90237 5.31658 3.90237 4.68342 4.29289 4.29289C4.68342 3.90237 5.31658 3.90237 5.70711 4.29289L8 6.58579L10.2929 4.29289C10.6834 3.90237 11.3166 3.90237 11.7071 4.29289C12.0976 4.68342 12.0976 5.31658 11.7071 5.70711L9.41421 8Z" fill="#6A7383"/>
</svg>
